assets/images/chartbar.svg

<svg viewBox="0 0 884 327.5" xmlns="http://www.w3.org/2000/svg" xmlns:xlink="http://www.w3.org/1999/xlink"><linearGradient id="a" gradientUnits="userSpaceOnUse" x1="442" x2="442" y1="327.5"><stop offset="0" stop-color="#fc3" stop-opacity="0"/><stop offset=".42" stop-color="#fc3" stop-opacity=".25"/><stop offset=".74" stop-color="#fc3" stop-opacity=".44"/><stop offset=".94" stop-color="#fc3" stop-opacity=".5"/></linearGradient><path d="m882 327.5a2 2 0 0 1 -2-2v-323.5a2 2 0 0 1 4 0v323.5a2 2 0 0 1 -2 2zm-10 0a2 2 0 0 1 -2-2v-315.5a2 2 0 0 1 4 0v315.5a2 2 0 0 1 -2 2zm-10 0a2 2 0 0 1 -2-2v-319.5a2 2 0 0 1 4 0v319.5a2 2 0 0 1 -2 2zm-10 0a2 2 0 0 1 -2-2v-315.5a2 2 0 0 1 4 0v315.5a2 2 0 0 1 -2 2zm-10 0a2 2 0 0 1 -2-2v-317.5a2 2 0 0 1 4 0v317.5a2 2 0 0 1 -2 2zm-10 0a2 2 0 0 1 -2-2v-317.5a2 2 0 0 1 4 0v317.5a2 2 0 0 1 -2 2zm-10 0a2 2 0 0 1 -2-2v-304.5a2 2 0 0 1 4 0v304.5a2 2 0 0 1 -2 2zm-10 0a2 2 0 0 1 -2-2v-299.5a2 2 0 0 1 4 0v299.5a2 2 0 0 1 -2 2zm-10 0a2 2 0 0 1 -2-2v-303.5a2 2 0 0 1 4 0v303.5a2 2 0 0 1 -2 2zm-10 0a2 2 0 0 1 -2-2v-304.5a2 2 0 0 1 4 0v304.5a2 2 0 0 1 -2 2zm-10 0a2 2 0 0 1 -2-2v-301.5a2 2 0 0 1 4 0v301.5a2 2 0 0 1 -2 2zm-10 0a2 2 0 0 1 -2-2v-297.5a2 2 0 0 1 4 0v297.5a2 2 0 0 1 -2 2zm-10 0a2 2 0 0 1 -2-2v-294.5a2 2 0 0 1 4 0v294.5a2 2 0 0 1 -2 2zm-10 0a2 2 0 0 1 -2-2v-298.5a2 2 0 0 1 4 0v298.5a2 2 0 0 1 -2 2zm-10 0a2 2 0 0 1 -2-2v-294.5a2 2 0 0 1 4 0v294.5a2 2 0 0 1 -2 2zm-10 0a2 2 0 0 1 -2-2v-290.5a2 2 0 0 1 4 0v290.5a2 2 0 0 1 -2 2zm-10 0a2 2 0 0 1 -2-2v-280.5a2 2 0 0 1 4 0v280.5a2 2 0 0 1 -2 2zm-10 0a2 2 0 0 1 -2-2v-269.5a2 2 0 0 1 4 0v269.5a2 2 0 0 1 -2 2zm-10 0a2 2 0 0 1 -2-2v-275.5a2 2 0 0 1 4 0v275.5a2 2 0 0 1 -2 2zm-10 0a2 2 0 0 1 -2-2v-276.5a2 2 0 0 1 4 0v276.5a2 2 0 0 1 -2 2zm-10 0a2 2 0 0 1 -2-2v-270.5a2 2 0 0 1 4 0v270.5a2 2 0 0 1 -2 2zm-10 0a2 2 0 0 1 -2-2v-283.5a2 2 0 0 1 4 0v283.5a2 2 0 0 1 -2 2zm-10 0a2 2 0 0 1 -2-2v-277.5a2 2 0 0 1 4 0v277.5a2 2 0 0 1 -2 2zm-10 0a2 2 0 0 1 -2-2v-268.5a2 2 0 0 1 4 0v268.5a2 2 0 0 1 -2 2zm-10 0a2 2 0 0 1 -2-2v-269.5a2 2 0 0 1 4 0v269.5a2 2 0 0 1 -2 2zm-10 0a2 2 0 0 1 -2-2v-271.5a2 2 0 0 1 4 0v271.5a2 2 0 0 1 -2 2zm-10 0a2 2 0 0 1 -2-2v-261.5a2 2 0 0 1 4 0v261.5a2 2 0 0 1 -2 2zm-10 0a2 2 0 0 1 -2-2v-249.5a2 2 0 0 1 4 0v249.5a2 2 0 0 1 -2 2zm-10 0a2 2 0 0 1 -2-2v-261.5a2 2 0 0 1 4 0v261.5a2 2 0 0 1 -2 2zm-10 0a2 2 0 0 1 -2-2v-265.5a2 2 0 0 1 4 0v265.5a2 2 0 0 1 -2 2zm-10 0a2 2 0 0 1 -2-2v-269.5a2 2 0 0 1 4 0v269.5a2 2 0 0 1 -2 2zm-10 0a2 2 0 0 1 -2-2v-269.5a2 2 0 0 1 4 0v269.5a2 2 0 0 1 -2 2zm-10 0a2 2 0 0 1 -2-2v-263.5a2 2 0 0 1 4 0v263.5a2 2 0 0 1 -2 2zm-10 0a2 2 0 0 1 -2-2v-257.5a2 2 0 0 1 4 0v257.5a2 2 0 0 1 -2 2zm-10 0a2 2 0 0 1 -2-2v-260.5a2 2 0 0 1 4 0v260.5a2 2 0 0 1 -2 2zm-10 0a2 2 0 0 1 -2-2v-258.5a2 2 0 0 1 4 0v258.5a2 2 0 0 1 -2 2zm-10 0a2 2 0 0 1 -2-2v-262.5a2 2 0 0 1 4 0v262.5a2 2 0 0 1 -2 2zm-10 0a2 2 0 0 1 -2-2v-259.5a2 2 0 0 1 4 0v259.5a2 2 0 0 1 -2 2zm-10 0a2 2 0 0 1 -2-2v-259.5a2 2 0 0 1 4 0v259.5a2 2 0 0 1 -2 2zm-10 0a2 2 0 0 1 -2-2v-251.5a2 2 0 0 1 4 0v251.5a2 2 0 0 1 -2 2zm-10 0a2 2 0 0 1 -2-2v-244.5a2 2 0 0 1 4 0v244.5a2 2 0 0 1 -2 2zm-10 0a2 2 0 0 1 -2-2v-236.5a2 2 0 0 1 4 0v236.5a2 2 0 0 1 -2 2zm-10 0a2 2 0 0 1 -2-2v-238.5a2 2 0 0 1 4 0v238.5a2 2 0 0 1 -2 2zm-10 0a2 2 0 0 1 -2-2v-232.5a2 2 0 0 1 4 0v232.5a2 2 0 0 1 -2 2zm-10 0a2 2 0 0 1 -2-2v-234.5a2 2 0 0 1 4 0v234.5a2 2 0 0 1 -2 2zm-10 0a2 2 0 0 1 -2-2v-233.5a2 2 0 0 1 4 0v233.5a2 2 0 0 1 -2 2zm-10 0a2 2 0 0 1 -2-2v-237.5a2 2 0 0 1 4 0v237.5a2 2 0 0 1 -2 2zm-10 0a2 2 0 0 1 -2-2v-242.5a2 2 0 0 1 4 0v242.5a2 2 0 0 1 -2 2zm-10 0a2 2 0 0 1 -2-2v-244.5a2 2 0 0 1 4 0v244.5a2 2 0 0 1 -2 2zm-10 0a2 2 0 0 1 -2-2v-236.5a2 2 0 0 1 4 0v236.5a2 2 0 0 1 -2 2zm-10 0a2 2 0 0 1 -2-2v-229.5a2 2 0 0 1 4 0v229.5a2 2 0 0 1 -2 2zm-10 0a2 2 0 0 1 -2-2v-227.5a2 2 0 0 1 4 0v227.5a2 2 0 0 1 -2 2zm-10 0a2 2 0 0 1 -2-2v-233.5a2 2 0 0 1 4 0v233.5a2 2 0 0 1 -2 2zm-10 0a2 2 0 0 1 -2-2v-230.5a2 2 0 0 1 4 0v230.5a2 2 0 0 1 -2 2zm-10 0a2 2 0 0 1 -2-2v-223.5a2 2 0 0 1 4 0v223.5a2 2 0 0 1 -2 2zm-10 0a2 2 0 0 1 -2-2v-219.5a2 2 0 0 1 4 0v219.5a2 2 0 0 1 -2 2zm-10 0a2 2 0 0 1 -2-2v-216.5a2 2 0 0 1 4 0v216.5a2 2 0 0 1 -2 2zm-10 0a2 2 0 0 1 -2-2v-216.5a2 2 0 0 1 4 0v216.5a2 2 0 0 1 -2 2zm-10 0a2 2 0 0 1 -2-2v-197.5a2 2 0 0 1 4 0v197.5a2 2 0 0 1 -2 2zm-10 0a2 2 0 0 1 -2-2v-202.5a2 2 0 0 1 4 0v202.5a2 2 0 0 1 -2 2zm-10 0a2 2 0 0 1 -2-2v-207.5a2 2 0 0 1 4 0v207.5a2 2 0 0 1 -2 2zm-10 0a2 2 0 0 1 -2-2v-204.5a2 2 0 0 1 4 0v204.5a2 2 0 0 1 -2 2zm-10 0a2 2 0 0 1 -2-2v-202.5a2 2 0 0 1 4 0v202.5a2 2 0 0 1 -2 2zm-10 0a2 2 0 0 1 -2-2v-198.5a2 2 0 0 1 4 0v198.5a2 2 0 0 1 -2 2zm-10 0a2 2 0 0 1 -2-2v-192.5a2 2 0 0 1 4 0v192.5a2 2 0 0 1 -2 2zm-10 0a2 2 0 0 1 -2-2v-188.5a2 2 0 0 1 4 0v188.5a2 2 0 0 1 -2 2zm-10 0a2 2 0 0 1 -2-2v-193.5a2 2 0 0 1 4 0v193.5a2 2 0 0 1 -2 2zm-10 0a2 2 0 0 1 -2-2v-190.5a2 2 0 0 1 4 0v190.5a2 2 0 0 1 -2 2zm-10 0a2 2 0 0 1 -2-2v-196.5a2 2 0 0 1 4 0v196.5a2 2 0 0 1 -2 2zm-10 0a2 2 0 0 1 -2-2v-190.5a2 2 0 0 1 4 0v190.5a2 2 0 0 1 -2 2zm-10 0a2 2 0 0 1 -2-2v-191.5a2 2 0 0 1 4 0v191.5a2 2 0 0 1 -2 2zm-10 0a2 2 0 0 1 -2-2v-186.5a2 2 0 0 1 4 0v186.5a2 2 0 0 1 -2 2zm-10 0a2 2 0 0 1 -2-2v-185.5a2 2 0 0 1 4 0v185.5a2 2 0 0 1 -2 2zm-10 0a2 2 0 0 1 -2-2v-187.5a2 2 0 0 1 4 0v187.5a2 2 0 0 1 -2 2zm-10 0a2 2 0 0 1 -2-2v-187.5a2 2 0 0 1 4 0v187.5a2 2 0 0 1 -2 2zm-10 0a2 2 0 0 1 -2-2v-188.5a2 2 0 0 1 4 0v188.5a2 2 0 0 1 -2 2zm-10 0a2 2 0 0 1 -2-2v-180.5a2 2 0 0 1 4 0v180.5a2 2 0 0 1 -2 2zm-10 0a2 2 0 0 1 -2-2v-169.5a2 2 0 0 1 4 0v169.5a2 2 0 0 1 -2 2zm-10 0a2 2 0 0 1 -2-2v-164.5a2 2 0 0 1 4 0v164.5a2 2 0 0 1 -2 2zm-10 0a2 2 0 0 1 -2-2v-166.5a2 2 0 0 1 4 0v166.5a2 2 0 0 1 -2 2zm-10 0a2 2 0 0 1 -2-2v-164.5a2 2 0 0 1 4 0v164.5a2 2 0 0 1 -2 2zm-10 0a2 2 0 0 1 -2-2v-168.5a2 2 0 0 1 4 0v168.5a2 2 0 0 1 -2 2zm-10 0a2 2 0 0 1 -2-2v-164.5a2 2 0 0 1 4 0v164.5a2 2 0 0 1 -2 2zm-10 0a2 2 0 0 1 -2-2v-148.5a2 2 0 0 1 4 0v148.5a2 2 0 0 1 -2 2zm-10 0a2 2 0 0 1 -2-2v-162.5a2 2 0 0 1 4 0v162.5a2 2 0 0 1 -2 2zm-10 0a2 2 0 0 1 -2-2v-158.5a2 2 0 0 1 4 0v158.5a2 2 0 0 1 -2 2zm-10 0a2 2 0 0 1 -2-2v-150.5a2 2 0 0 1 4 0v150.5a2 2 0 0 1 -2 2zm-10 0a2 2 0 0 1 -2-2v-150.5a2 2 0 0 1 4 0v150.5a2 2 0 0 1 -2 2zm-10 0a2 2 0 0 1 -2-2v-150.5a2 2 0 0 1 4 0v150.5a2 2 0 0 1 -2 2z" fill="url(#a)"/></svg>

<svg xmlns="http://www.w3.org/2000/svg" xmlns:xlink="http://www.w3.org/1999/xlink" viewBox="0 0 884 327.5"><defs><style>.cls-1{fill:url(#linear-gradient);}</style><linearGradient id="linear-gradient" x1="442" y1="327.5" x2="442" gradientUnits="userSpaceOnUse"><stop offset="0" stop-color="#fc3" stop-opacity="0"/><stop offset="0.42" stop-color="#fc3" stop-opacity="0.25"/><stop offset="0.74" stop-color="#fc3" stop-opacity="0.44"/><stop offset="0.94" stop-color="#fc3" stop-opacity="0.5"/></linearGradient></defs><title>cartbar</title><g id="Layer_2" data-name="Layer 2"><g id="Layer_1-2" data-name="Layer 1"><path class="cls-1" d="M882,327.5a2,2,0,0,1-2-2V2a2,2,0,0,1,4,0V325.5A2,2,0,0,1,882,327.5Zm-10,0a2,2,0,0,1-2-2V10a2,2,0,0,1,4,0V325.5A2,2,0,0,1,872,327.5Zm-10,0a2,2,0,0,1-2-2V6a2,2,0,0,1,4,0V325.5A2,2,0,0,1,862,327.5Zm-10,0a2,2,0,0,1-2-2V10a2,2,0,0,1,4,0V325.5A2,2,0,0,1,852,327.5Zm-10,0a2,2,0,0,1-2-2V8a2,2,0,0,1,4,0V325.5A2,2,0,0,1,842,327.5Zm-10,0a2,2,0,0,1-2-2V8a2,2,0,0,1,4,0V325.5A2,2,0,0,1,832,327.5Zm-10,0a2,2,0,0,1-2-2V21a2,2,0,0,1,4,0V325.5A2,2,0,0,1,822,327.5Zm-10,0a2,2,0,0,1-2-2V26a2,2,0,0,1,4,0V325.5A2,2,0,0,1,812,327.5Zm-10,0a2,2,0,0,1-2-2V22a2,2,0,0,1,4,0V325.5A2,2,0,0,1,802,327.5Zm-10,0a2,2,0,0,1-2-2V21a2,2,0,0,1,4,0V325.5A2,2,0,0,1,792,327.5Zm-10,0a2,2,0,0,1-2-2V24a2,2,0,0,1,4,0V325.5A2,2,0,0,1,782,327.5Zm-10,0a2,2,0,0,1-2-2V28a2,2,0,0,1,4,0V325.5A2,2,0,0,1,772,327.5Zm-10,0a2,2,0,0,1-2-2V31a2,2,0,0,1,4,0V325.5A2,2,0,0,1,762,327.5Zm-10,0a2,2,0,0,1-2-2V27a2,2,0,0,1,4,0V325.5A2,2,0,0,1,752,327.5Zm-10,0a2,2,0,0,1-2-2V31a2,2,0,0,1,4,0V325.5A2,2,0,0,1,742,327.5Zm-10,0a2,2,0,0,1-2-2V35a2,2,0,0,1,4,0V325.5A2,2,0,0,1,732,327.5Zm-10,0a2,2,0,0,1-2-2V45a2,2,0,0,1,4,0V325.5A2,2,0,0,1,722,327.5Zm-10,0a2,2,0,0,1-2-2V56a2,2,0,0,1,4,0V325.5A2,2,0,0,1,712,327.5Zm-10,0a2,2,0,0,1-2-2V50a2,2,0,0,1,4,0V325.5A2,2,0,0,1,702,327.5Zm-10,0a2,2,0,0,1-2-2V49a2,2,0,0,1,4,0V325.5A2,2,0,0,1,692,327.5Zm-10,0a2,2,0,0,1-2-2V55a2,2,0,0,1,4,0V325.5A2,2,0,0,1,682,327.5Zm-10,0a2,2,0,0,1-2-2V42a2,2,0,0,1,4,0V325.5A2,2,0,0,1,672,327.5Zm-10,0a2,2,0,0,1-2-2V48a2,2,0,0,1,4,0V325.5A2,2,0,0,1,662,327.5Zm-10,0a2,2,0,0,1-2-2V57a2,2,0,0,1,4,0V325.5A2,2,0,0,1,652,327.5Zm-10,0a2,2,0,0,1-2-2V56a2,2,0,0,1,4,0V325.5A2,2,0,0,1,642,327.5Zm-10,0a2,2,0,0,1-2-2V54a2,2,0,0,1,4,0V325.5A2,2,0,0,1,632,327.5Zm-10,0a2,2,0,0,1-2-2V64a2,2,0,0,1,4,0V325.5A2,2,0,0,1,622,327.5Zm-10,0a2,2,0,0,1-2-2V76a2,2,0,0,1,4,0V325.5A2,2,0,0,1,612,327.5Zm-10,0a2,2,0,0,1-2-2V64a2,2,0,0,1,4,0V325.5A2,2,0,0,1,602,327.5Zm-10,0a2,2,0,0,1-2-2V60a2,2,0,0,1,4,0V325.5A2,2,0,0,1,592,327.5Zm-10,0a2,2,0,0,1-2-2V56a2,2,0,0,1,4,0V325.5A2,2,0,0,1,582,327.5Zm-10,0a2,2,0,0,1-2-2V56a2,2,0,0,1,4,0V325.5A2,2,0,0,1,572,327.5Zm-10,0a2,2,0,0,1-2-2V62a2,2,0,0,1,4,0V325.5A2,2,0,0,1,562,327.5Zm-10,0a2,2,0,0,1-2-2V68a2,2,0,0,1,4,0V325.5A2,2,0,0,1,552,327.5Zm-10,0a2,2,0,0,1-2-2V65a2,2,0,0,1,4,0V325.5A2,2,0,0,1,542,327.5Zm-10,0a2,2,0,0,1-2-2V67a2,2,0,0,1,4,0V325.5A2,2,0,0,1,532,327.5Zm-10,0a2,2,0,0,1-2-2V63a2,2,0,0,1,4,0V325.5A2,2,0,0,1,522,327.5Zm-10,0a2,2,0,0,1-2-2V66a2,2,0,0,1,4,0V325.5A2,2,0,0,1,512,327.5Zm-10,0a2,2,0,0,1-2-2V66a2,2,0,0,1,4,0V325.5A2,2,0,0,1,502,327.5Zm-10,0a2,2,0,0,1-2-2V74a2,2,0,0,1,4,0V325.5A2,2,0,0,1,492,327.5Zm-10,0a2,2,0,0,1-2-2V81a2,2,0,0,1,4,0V325.5A2,2,0,0,1,482,327.5Zm-10,0a2,2,0,0,1-2-2V89a2,2,0,0,1,4,0V325.5A2,2,0,0,1,472,327.5Zm-10,0a2,2,0,0,1-2-2V87a2,2,0,0,1,4,0V325.5A2,2,0,0,1,462,327.5Zm-10,0a2,2,0,0,1-2-2V93a2,2,0,0,1,4,0V325.5A2,2,0,0,1,452,327.5Zm-10,0a2,2,0,0,1-2-2V91a2,2,0,0,1,4,0V325.5A2,2,0,0,1,442,327.5Zm-10,0a2,2,0,0,1-2-2V92a2,2,0,0,1,4,0V325.5A2,2,0,0,1,432,327.5Zm-10,0a2,2,0,0,1-2-2V88a2,2,0,0,1,4,0V325.5A2,2,0,0,1,422,327.5Zm-10,0a2,2,0,0,1-2-2V83a2,2,0,0,1,4,0V325.5A2,2,0,0,1,412,327.5Zm-10,0a2,2,0,0,1-2-2V81a2,2,0,0,1,4,0V325.5A2,2,0,0,1,402,327.5Zm-10,0a2,2,0,0,1-2-2V89a2,2,0,0,1,4,0V325.5A2,2,0,0,1,392,327.5Zm-10,0a2,2,0,0,1-2-2V96a2,2,0,0,1,4,0V325.5A2,2,0,0,1,382,327.5Zm-10,0a2,2,0,0,1-2-2V98a2,2,0,0,1,4,0V325.5A2,2,0,0,1,372,327.5Zm-10,0a2,2,0,0,1-2-2V92a2,2,0,0,1,4,0V325.5A2,2,0,0,1,362,327.5Zm-10,0a2,2,0,0,1-2-2V95a2,2,0,0,1,4,0V325.5A2,2,0,0,1,352,327.5Zm-10,0a2,2,0,0,1-2-2V102a2,2,0,0,1,4,0V325.5A2,2,0,0,1,342,327.5Zm-10,0a2,2,0,0,1-2-2V106a2,2,0,0,1,4,0V325.5A2,2,0,0,1,332,327.5Zm-10,0a2,2,0,0,1-2-2V109a2,2,0,0,1,4,0V325.5A2,2,0,0,1,322,327.5Zm-10,0a2,2,0,0,1-2-2V109a2,2,0,0,1,4,0V325.5A2,2,0,0,1,312,327.5Zm-10,0a2,2,0,0,1-2-2V128a2,2,0,0,1,4,0V325.5A2,2,0,0,1,302,327.5Zm-10,0a2,2,0,0,1-2-2V123a2,2,0,0,1,4,0V325.5A2,2,0,0,1,292,327.5Zm-10,0a2,2,0,0,1-2-2V118a2,2,0,0,1,4,0V325.5A2,2,0,0,1,282,327.5Zm-10,0a2,2,0,0,1-2-2V121a2,2,0,0,1,4,0V325.5A2,2,0,0,1,272,327.5Zm-10,0a2,2,0,0,1-2-2V123a2,2,0,0,1,4,0V325.5A2,2,0,0,1,262,327.5Zm-10,0a2,2,0,0,1-2-2V127a2,2,0,0,1,4,0V325.5A2,2,0,0,1,252,327.5Zm-10,0a2,2,0,0,1-2-2V133a2,2,0,0,1,4,0V325.5A2,2,0,0,1,242,327.5Zm-10,0a2,2,0,0,1-2-2V137a2,2,0,0,1,4,0V325.5A2,2,0,0,1,232,327.5Zm-10,0a2,2,0,0,1-2-2V132a2,2,0,0,1,4,0V325.5A2,2,0,0,1,222,327.5Zm-10,0a2,2,0,0,1-2-2V135a2,2,0,0,1,4,0V325.5A2,2,0,0,1,212,327.5Zm-10,0a2,2,0,0,1-2-2V129a2,2,0,0,1,4,0V325.5A2,2,0,0,1,202,327.5Zm-10,0a2,2,0,0,1-2-2V135a2,2,0,0,1,4,0V325.5A2,2,0,0,1,192,327.5Zm-10,0a2,2,0,0,1-2-2V134a2,2,0,0,1,4,0V325.5A2,2,0,0,1,182,327.5Zm-10,0a2,2,0,0,1-2-2V139a2,2,0,0,1,4,0V325.5A2,2,0,0,1,172,327.5Zm-10,0a2,2,0,0,1-2-2V140a2,2,0,0,1,4,0V325.5A2,2,0,0,1,162,327.5Zm-10,0a2,2,0,0,1-2-2V138a2,2,0,0,1,4,0V325.5A2,2,0,0,1,152,327.5Zm-10,0a2,2,0,0,1-2-2V138a2,2,0,0,1,4,0V325.5A2,2,0,0,1,142,327.5Zm-10,0a2,2,0,0,1-2-2V137a2,2,0,0,1,4,0V325.5A2,2,0,0,1,132,327.5Zm-10,0a2,2,0,0,1-2-2V145a2,2,0,0,1,4,0V325.5A2,2,0,0,1,122,327.5Zm-10,0a2,2,0,0,1-2-2V156a2,2,0,0,1,4,0V325.5A2,2,0,0,1,112,327.5Zm-10,0a2,2,0,0,1-2-2V161a2,2,0,0,1,4,0V325.5A2,2,0,0,1,102,327.5Zm-10,0a2,2,0,0,1-2-2V159a2,2,0,0,1,4,0V325.5A2,2,0,0,1,92,327.5Zm-10,0a2,2,0,0,1-2-2V161a2,2,0,0,1,4,0V325.5A2,2,0,0,1,82,327.5Zm-10,0a2,2,0,0,1-2-2V157a2,2,0,0,1,4,0V325.5A2,2,0,0,1,72,327.5Zm-10,0a2,2,0,0,1-2-2V161a2,2,0,0,1,4,0V325.5A2,2,0,0,1,62,327.5Zm-10,0a2,2,0,0,1-2-2V177a2,2,0,0,1,4,0V325.5A2,2,0,0,1,52,327.5Zm-10,0a2,2,0,0,1-2-2V163a2,2,0,0,1,4,0V325.5A2,2,0,0,1,42,327.5Zm-10,0a2,2,0,0,1-2-2V167a2,2,0,0,1,4,0V325.5A2,2,0,0,1,32,327.5Zm-10,0a2,2,0,0,1-2-2V175a2,2,0,0,1,4,0V325.5A2,2,0,0,1,22,327.5Zm-10,0a2,2,0,0,1-2-2V175a2,2,0,0,1,4,0V325.5A2,2,0,0,1,12,327.5Zm-10,0a2,2,0,0,1-2-2V175a2,2,0,0,1,4,0V325.5A2,2,0,0,1,2,327.5Z"/></g></g></svg>
